svg/emoji_u1f4b6.svg

<svg xmlns="http://www.w3.org/2000/svg" width="128" height="128"><path d="M123.84 40.19H4.15c-1.82 0-3.29 1.47-3.29 3.29v58.54c0 1.81 1.47 3.29 3.29 3.29h119.69c1.81 0 3.29-1.47 3.29-3.29V43.48c0-1.81-1.47-3.29-3.29-3.29z" fill="#b46060"/><path d="M123.85 22.69H4.15c-1.82 0-3.29 1.47-3.29 3.29v58.54c0 1.81 1.47 3.29 3.29 3.29h119.69c1.81 0 3.29-1.47 3.29-3.29V25.98c0-1.82-1.47-3.29-3.28-3.29z" fill="#f2bb9f"/><path d="M49.54 63.3l-.4.09c-2.63 2.09-7.16 3.67-10.53 3.67-3.64 0-6.64-1.41-8.6-3.72h7.1c.34 0 .6-.27.6-.6v-4.41c0-.33-.27-.6-.6-.6h-9.45c-.06-.46-.13-.92-.13-1.41 0-.49.07-.95.13-1.41h9.45c.34 0 .6-.27.6-.6v-4.42c0-.33-.27-.6-.6-.6h-7.09c1.97-2.31 4.96-3.72 8.6-3.72 3.52 0 7.14 1.14 9.43 2.97l.39.09.31-.25 4.09-8.21-.12-.57c-3.65-2.89-8.29-4.3-14.18-4.3-9.96 0-17.72 5.58-20.5 13.98h-6.59c-.33 0-.6.27-.6.6v4.42c0 .33.27.6.6.6h5.53c-.03.47-.07.93-.07 1.41 0 .47.04.94.07 1.41h-5.53c-.33 0-.6.27-.6.6v4.41c0 .33.27.6.6.6h6.59c2.78 8.4 10.54 13.99 20.5 13.99 5.74 0 10.69-1.75 14.73-5.19l.13-.54-3.54-8.04z" fill="#b6745e"/><path fill="#e0e0e0" d="M78.5 20.69h22V87.8h-22z"/><path fill="#bdbdbd" d="M78.5 87.81h22v19.5h-22z"/></svg>

<?xml version="1.0" encoding="UTF-8" standalone="no"?>
<!DOCTYPE svg PUBLIC "-//W3C//DTD SVG 1.1//EN" "http://www.w3.org/Graphics/SVG/1.1/DTD/svg11.dtd">
<svg width="100%" height="100%" viewBox="0 0 128 128" version="1.1" xmlns="http://www.w3.org/2000/svg" xmlns:xlink="http://www.w3.org/1999/xlink" xml:space="preserve" xmlns:serif="http://www.serif.com/" style="fill-rule:evenodd;clip-rule:evenodd;stroke-linejoin:round;stroke-miterlimit:2;">
    <path d="M123.84,40.19L4.15,40.19C2.33,40.19 0.86,41.66 0.86,43.48L0.86,102.02C0.86,103.83 2.33,105.31 4.15,105.31L123.84,105.31C125.65,105.31 127.13,103.84 127.13,102.02L127.13,43.48C127.13,41.67 125.66,40.19 123.84,40.19Z" style="fill:rgb(28,97,146);fill-rule:nonzero;"/>
    <path d="M123.85,22.69L4.15,22.69C2.33,22.69 0.86,24.16 0.86,25.98L0.86,84.52C0.86,86.33 2.33,87.81 4.15,87.81L123.84,87.81C125.65,87.81 127.13,86.34 127.13,84.52L127.13,25.98C127.13,24.16 125.66,22.69 123.85,22.69Z" style="fill:rgb(98,192,234);fill-rule:nonzero;"/>
    <path d="M49.54,63.3L49.14,63.39C46.51,65.48 41.98,67.06 38.61,67.06C34.97,67.06 31.97,65.65 30.01,63.34L37.11,63.34C37.45,63.34 37.71,63.07 37.71,62.74L37.71,58.33C37.71,58 37.44,57.73 37.11,57.73L27.66,57.73C27.6,57.27 27.53,56.81 27.53,56.32C27.53,55.83 27.6,55.37 27.66,54.91L37.11,54.91C37.45,54.91 37.71,54.64 37.71,54.31L37.71,49.89C37.71,49.56 37.44,49.29 37.11,49.29L30.02,49.29C31.99,46.98 34.98,45.57 38.62,45.57C42.14,45.57 45.76,46.71 48.05,48.54L48.44,48.63L48.75,48.38L52.84,40.17L52.72,39.6C49.07,36.71 44.43,35.3 38.54,35.3C28.58,35.3 20.82,40.88 18.04,49.28L11.45,49.28C11.12,49.28 10.85,49.55 10.85,49.88L10.85,54.3C10.85,54.63 11.12,54.9 11.45,54.9L16.98,54.9C16.95,55.37 16.91,55.83 16.91,56.31C16.91,56.78 16.95,57.25 16.98,57.72L11.45,57.72C11.12,57.72 10.85,57.99 10.85,58.32L10.85,62.73C10.85,63.06 11.12,63.33 11.45,63.33L18.04,63.33C20.82,71.73 28.58,77.32 38.54,77.32C44.28,77.32 49.23,75.57 53.27,72.13L53.4,71.59L49.86,63.55L49.54,63.3Z" style="fill:rgb(28,97,146);fill-rule:nonzero;"/>
    <rect x="78.5" y="20.69" width="22" height="67.11" style="fill:rgb(224,224,224);fill-rule:nonzero;"/>
    <rect x="78.5" y="87.81" width="22" height="19.5" style="fill:rgb(189,189,189);fill-rule:nonzero;"/>
</svg>
